!!!COM: Music21
!!!OTL: march_Crossabeg-Marchers--The
!!!OMV: march_Crossabeg-Marchers--The
**kern
*clefG2
*k[f#c#]
*D:
*M6/8
=1
8a
=
8ddL
8a
8aJ
8bL
8a
8gJ
=
8f#L
8d
8dJ
4d
8a
=
8ddL
8a
8aJ
8bL
8a
8f#J
=
8gL
8e
8eJ
4e
16aLL
16aJJ
=
8ddL
8a
8aJ
8bL
8a
8gJ
=
8f#L
8d
8dJ
4d
8a
!!linebreak:original
=
8f#L
8a
8aJ
8bL
8a
8gJ
=
8f#L
8d
8dJ
4d
8a
=||
8f#L
8a
8aJ
8bL
8a
8gJ
=
8f#L
8d
8dJ
4d
8a
=
8f#L
8a
8aJ
8bL
8a
8f#J
=
8gL
8e
8eJ
4e
16aLL
16aJJ
!!linebreak:original
=
8f#L
8a
8aJ
8bL
8a
8f#J
=
8f#L
8d
8dJ
4d
16aLL
16aJJ
=
8ddL
8a
8aJ
8bL
8a
8gJ
=
8f#L
8d
8dJ
4d
8ryy
=||
*-
